outputs/icons/action/dislike_round.svg

<svg width="1200" height="1200" viewBox="0 0 1200 1200" fill="none" xmlns="http://www.w3.org/2000/svg"><g clip-path="url(#clip0_223_1862)"><path d="M543.995 1097L820.495 820C838.995 801.5 849.495 776 849.495 749.5V250C849.495 195 804.495 150 749.495 150H299.995C259.995 150 223.995 174 208.495 210.5L45.495 591C2.995 690 75.495 800 182.995 800H465.495L417.995 1029C412.995 1054 420.495 1079.5 438.495 1097.5C467.995 1126.5 514.995 1126.5 543.995 1097ZM1049.995 150C994.995 150 949.995 195 949.995 250V650C949.995 705 994.995 750 1049.995 750C1104.995 750 1149.995 705 1149.995 650V250C1149.995 195 1104.995 150 1049.995 150Z" fill="#1D1E23"/></g><defs><clipPath id="clip0_223_1862"><path width="24" fill="white" d="M0 0H1200V1200H0V0z"/></clipPath></defs></svg>

<svg xmlns="http://www.w3.org/2000/svg" width="1200" height="1200" fill="none"><g clip-path="url(#a)"><path fill="#000" d="m543.995 1097 276.5-277c18.5-18.5 29-44 29-70.5V250c0-55-45-100-100-100h-449.5c-40 0-76 24-91.5 60.5l-163 380.5c-42.5 99 30 209 137.5 209h282.5l-47.5 229c-5 25 2.5 50.5 20.5 68.5 29.5 29 76.5 29 105.5-.5m506-947c-55 0-100 45-100 100v400c0 55 45 100 100 100s100-45 100-100V250c0-55-45-100-100-100"/></g><defs><clipPath id="a"><path fill="#fff" d="M0 0h1200v1200H0z"/></clipPath></defs></svg>
